icons/comment-ai-16.svg

<svg width="16" height="16" viewBox="0 0 16 16" xmlns="http://www.w3.org/2000/svg">
<path d="M7.75 0.999947C8.16421 0.999947 8.5 1.33574 8.5 1.74995C8.5 2.16416 8.16421 2.49995 7.75 2.49995H2.75C2.6837 2.49995 2.62013 2.52631 2.57324 2.57319C2.52636 2.62008 2.5 2.68365 2.5 2.74995V10.2499C2.5 10.3879 2.612 10.4999 2.75 10.4999H4.75C4.9489 10.4999 5.13962 10.579 5.28027 10.7197C5.42091 10.8603 5.5 11.0511 5.5 11.2499V13.4404L8.21973 10.7197C8.36025 10.579 8.55115 10.5001 8.75 10.4999H13.25C13.3163 10.4999 13.3799 10.4736 13.4268 10.4267C13.4737 10.3798 13.5 10.3162 13.5 10.2499V8.24995C13.5 7.83574 13.8358 7.49995 14.25 7.49995C14.6642 7.49995 15 7.83574 15 8.24995V10.2499C15 10.714 14.8155 11.1591 14.4873 11.4873C14.1591 11.8155 13.7141 11.9999 13.25 11.9999H9.05957L6.4873 14.5732C6.28357 14.7769 6.02374 14.9154 5.74121 14.9716C5.45864 15.0278 5.16558 14.9988 4.89941 14.8886C4.63344 14.7784 4.40617 14.5918 4.24609 14.3525C4.08599 14.113 4.0001 13.831 4 13.5429V11.9999H2.75C2.28588 11.9999 1.84088 11.8155 1.5127 11.4873C1.18451 11.1591 1 10.714 1 10.2499V2.74995C1 1.78395 1.784 0.999947 2.75 0.999947H7.75ZM12.2686 0.163033C12.3482 -0.0543227 12.6558 -0.0543657 12.7354 0.163033L12.9727 0.81147C13.3498 1.84148 14.1614 2.65311 15.1914 3.03022L15.8398 3.2685C16.0572 3.3481 16.0572 3.6557 15.8398 3.7353L15.1914 3.9726C14.1614 4.3497 13.3498 5.16133 12.9727 6.19135L12.7354 6.83979C12.6558 7.05721 12.3482 7.05721 12.2686 6.83979L12.0303 6.19135C11.6532 5.16135 10.8416 4.3497 9.81152 3.9726L9.16309 3.7353C8.9457 3.65571 8.94574 3.34814 9.16309 3.2685L9.81152 3.03022C10.8416 2.65312 11.6532 1.8415 12.0303 0.81147L12.2686 0.163033Z"/>
</svg>

<svg xmlns="http://www.w3.org/2000/svg" width="16" height="16" viewBox="0 0 16 16"><path d="M7.75 1a.75.75 0 0 1 0 1.5h-5a.25.25 0 0 0-.25.25v7.5c0 .138.112.25.25.25h2c.199 0 .39.079.53.22.141.14.22.331.22.53v2.19l2.72-2.72a.747.747 0 0 1 .53-.22h4.5a.25.25 0 0 0 .25-.25v-2a.75.75 0 0 1 1.5 0v2c0 .464-.184.909-.513 1.237A1.746 1.746 0 0 1 13.25 12H9.06l-2.573 2.573A1.457 1.457 0 0 1 4 13.543V12H2.75A1.75 1.75 0 0 1 1 10.25v-7.5C1 1.784 1.784 1 2.75 1h5Zm4.519-.837a.248.248 0 0 1 .466 0l.238.648a3.726 3.726 0 0 0 2.218 2.219l.649.238a.249.249 0 0 1 0 .467l-.649.238a3.725 3.725 0 0 0-2.218 2.218l-.238.649a.248.248 0 0 1-.466 0l-.239-.649a3.725 3.725 0 0 0-2.218-2.218l-.649-.238a.249.249 0 0 1 0-.467l.649-.238A3.726 3.726 0 0 0 12.03.811l.239-.648Z"/></svg>
